ui/StatusQ/src/assets/img/icons/bigger/status-update.svg

<svg fill="none" height="24" viewBox="0 0 24 24" width="24" xmlns="http://www.w3.org/2000/svg"><path clip-rule="evenodd" d="m12 23c-6.07513 0-11-4.9249-11-11 0-6.07513 4.92487-11 11-11 6.0751 0 11 4.92487 11 11 0 6.0751-4.9249 11-11 11zm0-1.5c-1.6429 0-2.97477-1.3318-2.97477-2.9748 0-1.6429 1.33187-2.9747 2.97477-2.9747s2.9748 1.3318 2.9748 2.9747c0 1.643-1.3319 2.9748-2.9748 2.9748zm-4.88742-2.8249c.11346.1967.41265.0772.41265-.1499 0-2.4713 2.00342-4.4747 4.47477-4.4747 2.4713 0 4.4748 2.0034 4.4748 4.4747 0 .2271.2992.3466.4126.1499.4777-.8281.7511-1.7889.7511-2.8136 0-3.114-2.5245-5.6384-5.6385-5.6384-3.11403 0-5.63846 2.5244-5.63846 5.6384 0 1.0247.27333 1.9855.75104 2.8136zm11.93572-1.6759c-.07.4367.5015.7848.7542.4218 1.0701-1.5374 1.6975-3.4059 1.6975-5.421 0-5.24671-4.2533-9.5-9.5-9.5-5.24671 0-9.5 4.25329-9.5 9.5 0 2.0151.6274 3.8836 1.69751 5.421.25267.363.82414.0149.7542-.4218-.05934-.3705-.09017-.7505-.09017-1.1377 0-3.9424 3.196-7.13842 7.13846-7.13842 3.9425 0 7.1385 3.19602 7.1385 7.13842 0 .3872-.0309.7672-.0902 1.1377z" fill="#939ba1" fill-rule="evenodd"/></svg>

<svg width="24" height="24" viewBox="0 0 24 24" fill="none" xmlns="http://www.w3.org/2000/svg">
<path fill-rule="evenodd" clip-rule="evenodd" d="M12 23C5.92487 23 1 18.0751 1 12C1 5.92487 5.92487 1 12 1C18.0751 1 23 5.92487 23 12C23 18.0751 18.0751 23 12 23ZM12 21.5C10.3571 21.5 9.02523 20.1682 9.02523 18.5252C9.02523 16.8823 10.3571 15.5505 12 15.5505C13.6429 15.5505 14.9748 16.8823 14.9748 18.5252C14.9748 20.1682 13.6429 21.5 12 21.5ZM7.11258 18.6751C7.22604 18.8718 7.52523 18.7523 7.52523 18.5252C7.52523 16.0539 9.52865 14.0505 12 14.0505C14.4713 14.0505 16.4748 16.0539 16.4748 18.5252C16.4748 18.7523 16.774 18.8718 16.8874 18.6751C17.3651 17.847 17.6385 16.8862 17.6385 15.8615C17.6385 12.7475 15.114 10.2231 12 10.2231C8.88597 10.2231 6.36154 12.7475 6.36154 15.8615C6.36154 16.8862 6.63487 17.847 7.11258 18.6751ZM19.0483 16.9992C18.9783 17.4359 19.5498 17.784 19.8025 17.421C20.8726 15.8836 21.5 14.0151 21.5 12C21.5 6.75329 17.2467 2.5 12 2.5C6.75329 2.5 2.5 6.75329 2.5 12C2.5 14.0151 3.1274 15.8836 4.19751 17.421C4.45018 17.784 5.02165 17.4359 4.95171 16.9992C4.89237 16.6287 4.86154 16.2487 4.86154 15.8615C4.86154 11.9191 8.05754 8.72308 12 8.72308C15.9425 8.72308 19.1385 11.9191 19.1385 15.8615C19.1385 16.2487 19.1076 16.6287 19.0483 16.9992Z" fill="#939BA1"/>
</svg>
